X:1
T: Camel's Hump
C: © B. Black
Q: 350
R: reel
M: 4/4
L: 1/8
K: C
B,E E2 B,E^GE | B,E^GA _BAFD | B,E E2 B,E^GA | _BAFD E2 ED |
B,E E2 B,E^GE | B,E^GA _BAFD | FE (3EDE ^GE (3EDE | _BAFD E4 :|
eB B2 ^gB B2 | (3c=BA eA fAeA | eB B2 ^gB B2 | afef e2 fe |
eB B2 ^gB B2 | (3c=BA eA fAeA | B^G G2 AF F2 | BA^GF E4 :|

